X:1
T:The Fisherman's Island
L:1/8
M:4/4
I:linebreak $
K:D
V:1 treble 
V:1
 z | A,DFA d2 cd | BAGB AFDF | (3GFE (3FED CDEF | GBed (3cde Ag | f2 df e2 ce |$ dcdc BAGF | %7
 EFGB cded | cAGE FDD :| g | fd d2 AF F2 | DFAd fdef |$ gece bece | geed c/B/A G/F/E | %14
 DF F2 Ad d2 | Bg g2 edcB | Adfd g2 ed | cAGE FDD :| %18
